X:1
T:Title
%%score ( 1 2 ) ( 3 4 )
L:1/8
Q:1/4=96
M:4/4
K:G
V:1 treble nm="Midi_20"
V:2 treble 
V:3 bass nm="Midi_20"
V:4 bass 
V:1
"^Lebbaeus (77. 76.)""^arranged by Sir Arthur Sullivan\n(1842-1900)" B3 B B2 A2 | G2 G2 D4 | %2
 G3 G A2 A2 | B2 B2 A4 || c3 c c2 B2 | A2 A2 E4 | D2 G2 B2 A2 | A4 G4 |] %8
V:2
 D3 D D2 C2 | B,2 B,2 D4 | B,3 B, D2 D2 | D2 D2 D4 || E3 E E2 E2 | E2 A,2 A,4 | B,2 D2 G2 F2 | %7
 F4 G4 |] %8
V:3
 G,3 G, G,2 F,2 | G,2 G,2 A,4 | G,3 G, F,2 F,2 | G,2 G,2 F,4 || A,3 A, A,2 ^G,2 | A,2 E,2 G,4 | %6
 G,2 B,2 D2 C2 | C4 B,4 |] %8
V:4
 G,,3 G,, B,,2 D,2 | G,2 G,2 F,4 | E,3 E, D,2 C,2 | B,,2 G,,2 D,4 || A,,3 A,, A,,2 B,,2 | %5
 C,2 C,2 ^C,4 | D,2 D,2 D,2 D,2 | D,4 G,,4 |] %8

